!!!!SEGMENT: pl-gd--ms-4006--002-002_marenzio-luca--missa-super-iniquos-odio-habui-gloria-et-in-terra-pax.krn
!!!cenid: 16xx:1743
!!!COM: Marenzio, Luca
!!!COM-rismID: pe30003955
!!!CDT: ~1553-1599/08/22
!!!CNT: Italian
!!!OPR: Missa super Iniquos odio habui
!!!OTL: Gloria/Et in terra pax
!!!OMV: 002
!!!PDT:
!!!AGN: Sacred; Mass section
!!!YEC: Copyright 2022 Narodowy Instytut Fryderyka Chopina (https://polishscores.org)
!!!YEM: License CC-BY-4.0 (https://creativecommons.org/licenses/by/4.0)
!!!SMS-siglum: PL-GD
!!!SMS-shelfmark: Ms 4006
!!!SMS-variant:
!!!SMS-altvar:
!!!SMS-shelfwork: 002-002 M
!!!NIFC-rismSourceID: 305000459
!!!NIFC-rismChildID: 305000511
!!!NIFC-islandoraID: pl-gd:71737
!!!URL-pdf-islandora: https://repozytorium.nifc.pl/islandora/object/pl-gd%3A71737/datastream/PDF/view#page=78
!!!URL-scan: https://polish.musicsources.pl/pl/lokalizacje/galeria/rekopisy/5105 @EN{Scan on Polish Music Sources Website} @PL{Skany w portalu Dziedzictwo Muzyki Polskiej w otwartym dostępie}
!!!IIIF: https://repozytorium.nifc.pl/islandora/object/pl-gd%3A71737/datastream/IIIF/view#page=78
!!!ONB-nifc: UWAGA: msza z nr 48. 6 ksiąg głosowych. Dla V6 i V7 -puste pięciolinie. Części 1. Kyrie eleison, 2. Gloria/Et in terra pax. Skany: Bassus: 77r-78r (skan 0078-0079), Tenor: 78v-79r (skan 0229), Quintavox 79r-80r (skan 0381-0382), Octavavox: 74v-75v (skan 0526-0527), Altus: 77r-78r (skan 0672-0673), Discantus: 79r-80r (skan 0825-0826)
!!!AIN: 1 alto 1 bass 1 soprn 1 tenor 4 vox
!!!key: F
**kern	**text	**kern	**kern	**kern	**text	**kern	**text	**kern	**text	**text	**kern	**text	**kern	**text
*part8	*	*part7	*part6	*part5	*	*part4	*	*part3	*	*	*part2	*	*part1	*
*staff8	*	*staff7	*staff6	*staff5	*	*staff4	*	*staff3	*	*	*staff2	*	*staff1	*
*I"OCTAVAVOX	*	*I"[Voce]	*I"[Voce]	*I"QVINTAVOX	*	*I"BASSVS.	*	*I"TENOR	*	*	*I"ALTVS	*	*I"DISCANTVS	*
*I'V 8	*	*I'V 7	*I'V 6	*I'V 5	*	*I'B	*	*I'T	*	*	*I'A	*	*I'S	*
*ICvox	*	*ICvox	*ICvox	*ICvox	*	*ICvox	*	*ICvox	*	*	*ICvox	*	*ICvox	*
*Ivox	*	*Ivox	*Ivox	*Ivox	*	*Ibass	*	*Itenor	*	*	*Ialto	*	*Isoprn	*
*clefF4	*	*clefC4	*clefC3	*clefC1	*	*clefF4	*	*clefC4	*	*	*clefC3	*	*clefC1	*
*k[b-]	*	*k[b-]	*k[b-]	*k[b-]	*	*k[b-]	*	*k[b-]	*	*	*k[b-]	*	*k[b-]	*
*F:	*	*F:	*F:	*F:	*	*F:	*	*F:	*	*	*F:	*	*F:	*
*M2/1	*	*M2/1	*M2/1	*M2/1	*	*M2/1	*	*M2/1	*	*	*M2/1	*	*M2/1	*
*met(C|)	*	*met(C|)	*met(C|)	*met(C|)	*	*met(C|)	*	*met(C|)	*	*	*met(C|)	*	*met(C|)	*
=1-	=1-	=1-	=1-	=1-	=1-	=1-	=1-	=1-	=1-	=1-	=1-	=1-	=1-	=1-
*xywh-#526:787,681,4279,900	*	*	*	*xywh-#381:5116,1224,4309,841	*	*xywh-#78:5119,247,4327,1061	*	*xywh-#229:553,2777,4525,920	*	*	*xywh-#672:5292,325,4247,1113	*	*xywh-#825:5277,430,4153,968	*
!	!	!	!	!	!	!	!	!LO:TX:b:i:t=Et in terra&colon;:color=red	!	!	!LO:TX:b:i:t=ET in terra pax,:color=red	!	!	!
!LO:TX:b:i:t=Et in terra pax&colon;:color=red	!	!	!	!LO:TX:b:t=ET in&colon;:color=red	!	!LO:TX:a:i:t=Gloria in excelſis DEO.:color=red	!	!LO:TX:b:i:t=Gloria \nin excelſis \nDEO.:color=red	!	!	!LO:TX:a:i:t=Gloria in Excelſis DEO.:color=red	!	!	!
00r	.	0ryy	0ryy	00r	.	0r	.	00r	.	.	00r	.	2r	.
*	*	*	*	*	*	*	*color:red	*	*	*	*	*	*	*color:red
.	.	.	.	.	.	.	.	.	.	.	.	.	4f/	Et
.	.	.	.	.	.	.	.	.	.	.	.	.	4g/	.
.	.	.	.	.	.	.	.	.	.	.	.	.	4a\	.
.	.	.	.	.	.	.	.	.	.	.	.	.	4b-\	.
.	.	.	.	.	.	.	.	.	.	.	.	.	1cc\	in
=2-	=2-	=2-	=2-	=2-	=2-	=2-	=2-	=2-	=2-	=2-	=2-	=2-	=2-	=2-
.	.	0ryy	0ryy	.	.	1r	.	.	.	.	.	.	.	.
!	!	!	!	!	!	!	!	!	!	!	!	!	!LO:N:acc=#	!
.	.	.	.	.	.	.	.	.	.	.	.	.	2bn\	ter-
.	.	.	.	.	.	0F	Et	.	.	.	.	.	4cc\	.
.	.	.	.	.	.	.	.	.	.	.	.	.	4b-yX\	.
.	.	.	.	.	.	.	.	.	.	.	.	.	4a\	.
.	.	.	.	.	.	.	.	.	.	.	.	.	4g/	.
=3-	=3-	=3-	=3-	=3-	=3-	=3-	=3-	=3-	=3-	=3-	=3-	=3-	=3-	=3-
00r	.	0ryy	0ryy	00r	.	.	.	00r	.	.	00r	.	4f/	.
.	.	.	.	.	.	.	.	.	.	.	.	.	4g/	.
.	.	.	.	.	.	.	.	.	.	.	.	.	4a\	.
.	.	.	.	.	.	.	.	.	.	.	.	.	4g/	.
.	.	.	.	.	.	1D	in	.	.	.	.	.	1f	-ra
=4-	=4-	=4-	=4-	=4-	=4-	=4-	=4-	=4-	=4-	=4-	=4-	=4-	=4-	=4-
.	.	0ryy	0ryy	.	.	2C/	ter-	.	.	.	.	.	1e	pax
.	.	.	.	.	.	2C/	-ra	.	.	.	.	.	.	.
.	.	.	.	.	.	4F\	pax	.	.	.	.	.	4f/	ho-
*	*	*	*	*	*	*	*color:auto	*	*	*	*	*	*	*
.	.	.	.	.	.	4A\	ho-	.	.	.	.	.	4e/	.
.	.	.	.	.	.	4.G\	-(mi-	.	.	.	.	.	4.g/	-mi-
.	.	.	.	.	.	8G\	-n)i-	.	.	.	.	.	8g/	-ni-
=5-	=5-	=5-	=5-	=5-	=5-	=5-	=5-	=5-	=5-	=5-	=5-	=5-	=5-	=5-
2r	.	0ryy	0ryy	2r	.	1C	-b(us),	2r	.	.	2r	.	1g	-bus,
1C	Bo-	.	.	1g	Bo-	.	.	1c	Bo-	.	1e	Bo-	.	.
.	.	.	.	.	.	1r	.	.	.	.	.	.	1r	.
2AA/	-næ	.	.	2a\	-næ	.	.	2c\	-næ	.	2f\	-næ	.	.
=6-	=6-	=6-	=6-	=6-	=6-	=6-	=6-	=6-	=6-	=6-	=6-	=6-	=6-	=6-
4BB-/	vo-	0ryy	0ryy	4f/	vo-	1r	.	4B-\	vo-	.	4d\	vo-	1r	.
4GG/	-lu(n)-	.	.	4b-\	-lun-	.	.	4d\	-lun-	.	2g\	-lu(n)-	.	.
2D/	-ta-	.	.	2a\	-ta-	.	.	2d\	-ta-	.	.	.	.	.
.	.	.	.	.	.	.	.	.	.	.	4f#X\	-ta-	.	.
2GG/	-tis,	.	.	2g/	-tis,	4r	.	2d\	-tis,	.	2g\	-tis.	4r	.
.	.	.	.	.	.	4G\	lau-	.	.	.	.	.	4g/	lau-
2r	.	.	.	2r	.	4F#X\	-da-	2r	.	.	2r	.	4a\	-da-
!	!	!	!	!	!	!	!	!	!	!	!	!	!LO:TX:t=P:problem:# above	!
!	!	!	!	!	!	!	!	!	!	!	!	!	!LO:N:acc=#	!
.	.	.	.	.	.	4G\	-mus	.	.	.	.	.	4bn\	-mus
=7-	=7-	=7-	=7-	=7-	=7-	=7-	=7-	=7-	=7-	=7-	=7-	=7-	=7-	=7-
4r	.	0ryy	0ryy	4r	.	2C/	te,	4r	.	.	4r	.	2cc\	te
4C/	be-	.	.	4g/	be-	.	.	4c\	be-	.	4e\	be-	.	.
4GG/	-ne-	.	.	4g/	-ne-	2r	.	4B-\	-ne-	.	4d\	-ne-	2r	.
4.C/	-di-	.	.	4.g/	-di-	.	.	4.c\	-di-	.	4.e\	-di-	.	.
*	*	*	*	*	*	*	*	*	*	*	*	*	*custos:cc	*color:auto
!	!	!	!	!	!	!	!	!	!	!	!	!	!LO:LB:g=original	!
*	*	*	*	*	*	*	*	*	*	*	*	*	*xywh-#825:5261,1229,4276,927	*
.	.	.	.	.	.	2r	.	.	.	.	.	.	2r	.
!LO:TX:t=P:problem:# below	!	!	!	!	!	!	!	!	!	!	!	!	!	!
!LO:N:acc=#	!	!	!	!	!	!	!	!	!	!	!	!	!	!
8BBn/	-ci-	.	.	8g/	-ci-	.	.	8d\	-ci-	.	8d\	-ci-	.	.
4C/	-mus	.	.	4g/	-mus	.	.	4c\	-mus	.	4e\	-m(us)	.	.
2FF/	te,	.	.	2a\	te,	4r	.	2c\	te,	.	2fny\	te,	4r	.
.	.	.	.	.	.	2Fny\	a-	.	.	.	.	.	2cc\	a-
=8-	=8-	=8-	=8-	=8-	=8-	=8-	=8-	=8-	=8-	=8-	=8-	=8-	=8-	=8-
0r	.	0ryy	0ryy	0r	.	.	.	0r	.	.	0r	.	.	.
.	.	.	.	.	.	4G\	-do-	.	.	.	.	.	4b-y\	-do-
.	.	.	.	.	.	1D	-ra-	.	.	.	.	.	1a	-ra-
.	.	.	.	.	.	2E-X\	-mus	.	.	.	.	.	2g/	-mus
=9-	=9-	=9-	=9-	=9-	=9-	=9-	=9-	=9-	=9-	=9-	=9-	=9-	=9-	=9-
4r	.	0ryy	0ryy	4r	.	2D/	te,	4r	.	.	4r	.	2f#X/	te.
4D/	glo-	.	.	4dd\	glo-	.	.	4A/	glo-	.	4d\	glo-	.	.
4.G\	-ri-	.	.	4.dd\	-ri-	2r	.	4.B-\	-ri-	.	8d\L	-ri-	2r	.
.	.	.	.	.	.	.	.	.	.	.	8c\J	.	.	.
.	.	.	.	.	.	.	.	.	.	.	8B-/L	.	.	.
8A\	.	.	.	8cc\	.	.	.	8c\	.	.	8A/J	.	.	.
4B-\	.	.	.	4b-\	.	0r	.	4d\	.	.	4G/	-fi-	0r	.
4E-X\	-fi-	.	.	4b-\	-fi-	.	.	4e-X\	-fi-	.	4g\	-ca-	.	.
4.F\	-ca-	.	.	4.a\	-ca-	.	.	4.c\	-ca-	.	4.f\	.	.	.
8F\	-mus	.	.	8a\	-mus	.	.	8c\	-mus	.	8f\	-mus	.	.
=10-	=10-	=10-	=10-	=10-	=10-	=10-	=10-	=10-	=10-	=10-	=10-	=10-	=10-	=10-
1BB-y,	te;	0ryy	0ryy	1b-,	te,	.	.	1B-	te,	.	1f,	te,	.	.
*custos:FF	*	*	*	*	*	*	*	*	*	*	*	*	*	*
!LO:LB:g=original	!	!	!	!	!	!	!	!	!	!	!	!	!	!
*xywh-#526:969,1397,4204,850	*	*	*	*	*	*	*	*	*	*	*	*	*	*
1.FF	gra-	.	.	1.a	Gra-	1.F	gra-	1.c	gra-	.	1.f	Gra-	1.cc	gra-
=11-	=11-	=11-	=11-	=11-	=11-	=11-	=11-	=11-	=11-	=11-	=11-	=11-	=11-	=11-
.	.	0ryy	0ryy	.	.	.	.	.	.	.	.	.	.	.
2FF/	-ti-	.	.	2a\	-ti-	2F\	-ti-	2F/	-ti-	.	2f\	-ti-	2cc\	-ti-
*	*	*	*	*custos:a	*	*custos:F	*	*custos:F	*	*	*	*	*	*
!	!	!	!	!LO:LB:g=original	!	!LO:LB:g=original	!	!LO:PB:g=original	!	!	!	!	!	!
*	*	*	*	*xywh-#381:5142,1980,4203,811	*	*xywh-#78:5127,1162,4274,812	*	*xywh-#229:5082,587,4458,969	*	*	*	*	*	*
1FF	-as	.	.	1a	-as	1F,	-as	1F,<	-as	.	1c,	-as	1cc	-as
=12-	=12-	=12-	=12-	=12-	=12-	=12-	=12-	=12-	=12-	=12-	=12-	=12-	=12-	=12-
1.C	a-	0ryy	0ryy	1.g	a-	1.C	a-	1.G	a-	.	2.c/	a-	1.cc	a-
.	.	.	.	.	.	.	.	.	.	.	4d\	-gi-	.	.
*	*	*	*	*	*	*	*	*	*	*	*custos:e	*	*	*
!	!	!	!	!	!	!	!	!	!	!	!LO:LB:g=original	!	!	!
*	*	*	*	*	*	*	*	*	*	*	*xywh-#672:5287,1363,4171,774	*	*	*
!	!	!	!	!	!	!	!	!	!	!	!LO:N:acc=#	!	!	!
.	.	.	.	.	.	.	.	.	.	.	2en\	-mus	.	.
2C/	-gi-	.	.	2g/	-gi-	2C/	-gi-	2G/	-gi-	.	2c/	.	2cc\	-gi-
=13-	=13-	=13-	=13-	=13-	=13-	=13-	=13-	=13-	=13-	=13-	=13-	=13-	=13-	=13-
1C	-mus	0ryy	0ryy	0g	-mus	1C	-mus	1G	-mus	.	1c	ti-	1cc	-mus
0GG	ti-	.	.	.	.	0G	ti-	0G	ti-	.	4d\	-bi	0b-	ti-
.	.	.	.	.	.	.	.	.	.	.	4c/	ti-	.	.
.	.	.	.	.	.	.	.	.	.	.	4B-/	.	.	.
.	.	.	.	.	.	.	.	.	.	.	4c/	.	.	.
=14-	=14-	=14-	=14-	=14-	=14-	=14-	=14-	=14-	=14-	=14-	=14-	=14-	=14-	=14-
.	.	0ryy	0ryy	1.g	ti-	.	.	.	.	.	1d	.	.	.
0D	-bi,	.	.	.	.	0D	-bi	0A	-bi,	.	0d	-bi,	0a	-bi
.	.	.	.	4f#X/	.	.	.	.	.	.	.	.	.	.
.	.	.	.	4e/	.	.	.	.	.	.	.	.	.	.
=15-	=15-	=15-	=15-	=15-	=15-	=15-	=15-	=15-	=15-	=15-	=15-	=15-	=15-	=15-
.	.	0ryy	0ryy	1f#X	-bi,	.	.	.	.	.	.	.	.	.
0r	.	.	.	0r	.	4G\	p(ro)p-	0r	.	.	0r	.	4g/	p(ro)p
.	.	.	.	.	.	4G\	-(ter)	.	.	.	.	.	4g/	(ter)
.	.	.	.	.	.	2G\	ma-	.	.	.	.	.	2g/	ma-
=16-	=16-	=16-	=16-	=16-	=16-	=16-	=16-	=16-	=16-	=16-	=16-	=16-	=16-	=16-
.	.	0ryy	0ryy	.	.	4F\	-gna(m)	.	.	.	.	.	4a\	-gna(m)
.	.	.	.	.	.	4.B-\	glo-	.	.	.	.	.	4.b-\	glo-
.	.	.	.	.	.	8B-\	-ri-	.	.	.	.	.	8b-\	-ri-
.	.	.	.	.	.	4F\	-a(m)	.	.	.	.	.	4a\	-a(m)
2r	.	.	.	2r	.	2G\	tu-	2r	.	.	2r	.	2g/	tu-
4C/	p(ro)p-	.	.	4g/	p(ro)p-	1C/	-am,	4c\	p(ro)p-	.	4e\	p(ro)p-	1g\	-am,
4C/	-(ter)	.	.	4g/	-(ter)	.	.	4c\	-(ter)	.	4e\	-(te)r	.	.
=17-	=17-	=17-	=17-	=17-	=17-	=17-	=17-	=17-	=17-	=17-	=17-	=17-	=17-	=17-
2C/	ma-	0ryy	0ryy	2g/	ma-	.	.	2c\	ma-	.	2e\	ma-	.	.
4AA/	-gna(m)	.	.	4a\	-gna(m)	2r	.	4c\	-gna(m)	.	4f\	.	2r	.
4.BB-/	glo-	.	.	4.fny/	glo-	.	.	4.B-\	glo-	.	4.d\	.	.	.
.	.	.	.	.	.	1r	.	.	.	.	.	.	1r	.
8BB-/	-ri-	.	.	8f/	-ri-	.	.	8B-\	-ri-	.	8d\	-gna(m)	.	.
4GG/	-a(m)	.	.	2g/	-a(m)	.	.	4B-\	-a(m)	.	4d\	glo-	.	.
2D/	tu-	.	.	.	.	.	.	2A/	tu-	.	2d\	-ri-	.	.
.	.	.	.	4f#X/	tu-	.	.	.	.	.	.	.	.	.
=18-	=18-	=18-	=18-	=18-	=18-	=18-	=18-	=18-	=18-	=18-	=18-	=18-	=18-	=18-
!	!	!	!	!	!	!	!	!	!	!	!	!	!LO:TX:t=P:problem:# above	!
!	!	!	!	!	!	!	!	!	!	!	!	!	!LO:N:acc=#	!
*	*	*	*	*	*	*	*	*	*	*	*	*	*	*ij
1GG	-a(m)	0ryy	0ryy	1g	-a(m)	4G\	p(ro)p-	1G	-am	.	1d	-am	4bn\	p(ro)p-
.	.	.	.	.	.	4G\	-(ter)	.	.	.	.	.	4b\	-(ter)
.	.	.	.	.	.	2G\	ma-	.	.	.	.	.	2b\	ma-
!	!	!	!	!	!	!	!	!	!	!	!LO:N:acc=#	!	!a	!
4C/	p(ro)p-	.	.	4g/	p(ro)p-	1C	-gna(m)	4G/	p(ro)p-	.	4en\	tu-	1cc	.
4C/	-(ter)	.	.	4e/	-(ter)	.	.	4G/	-(ter)	.	4c/	.	.	.
2C/	ma-	.	.	2g/	ma-	.	.	2G/	ma-	.	2e\	.	.	.
*	*	*	*	*	*	*	*	*	*	*	*	*	*custos:a	*
!	!	!	!	!	!	!	!	!	!	!	!	!	!LO:LB:g=original	!
=19-	=19-	=19-	=19-	=19-	=19-	=19-	=19-	=19-	=19-	=19-	=19-	=19-	=19-	=19-
*	*	*	*	*	*	*	*	*	*	*	*	*	*xywh-#825:5266,2013,4271,891	*
1FF	-gna(m)	0ryy	0ryy	1a	-gna(m)	4F\	p(ro)p-	1F	-gnam,	.	1c	-am,	4a\	.
.	.	.	.	.	.	4F\	-(ter)	.	.	.	.	.	4a\	-gna(m)
.	.	.	.	.	.	2F\	ma-	.	.	.	.	.	2a\	glo-
0r	.	.	.	0r	.	4D/	-gna(m)	0r	.	.	0r	.	4b-\	.
.	.	.	.	.	.	4.E-X\	glo-	.	.	.	.	.	4.g/	-ri-
.	.	.	.	.	.	8E-\	-ri-	.	.	.	.	.	8g/	-a(m)
.	.	.	.	.	.	4BB-/	-am	.	.	.	.	.	4fny/	.
*	*	*	*	*	*	*custos:F	*	*	*	*	*	*	*	*
!	!	!	!	!	!	!LO:LB:g=original	!	!	!	!	!	!	!	!
=20-	=20-	=20-	=20-	=20-	=20-	=20-	=20-	=20-	=20-	=20-	=20-	=20-	=20-	=20-
*	*	*	*	*	*	*xywh-#78:5118,1836,4333,811	*	*	*	*	*	*	*	*
.	.	0ryy	0ryy	.	.	1F	tu-	.	.	.	.	.	1f	tu-
2r	.	.	.	2r	.	0BB-	-am,	2r	.	.	2r	.	0f	-am
1BB-/	Do-	.	.	1fny/	Do-	.	.	1B-\	Do-	.	1d\	Do-	.	.
*	*	*	*	*	*	*	*	*	*	*	*	*	*	*Xij
=21-	=21-	=21-	=21-	=21-	=21-	=21-	=21-	=21-	=21-	=21-	=21-	=21-	=21-	=21-
.	.	0ryy	0ryy	.	.	.	.	.	.	.	.	.	.	.
2BB-/	-mi-	.	.	2f/	-mi-	.	.	2B-\	-(m)i-	.	2d\	-mi-	.	.
*custos:BB-	*	*	*	*custos:f	*	*	*	*	*	*	*	*	*	*
!LO:LB:g=original	!	!	!	!LO:LB:g=original	!	!	!	!	!	!	!	!	!LO:TX:t=P:problem:Verovio nie wyświetla pauzy	!
*xywh-#526:930,2035,4229,740	*	*	*	*xywh-#381:5152,2630,4178,882	*	*	*	*	*	*	*	*	*	*
1BB-	-ne	.	.	1f	-nus	0r	.	1B-	-(n)e	.	1d	-ne	1r	.
=22-	=22-	=22-	=22-	=22-	=22-	=22-	=22-	=22-	=22-	=22-	=22-	=22-	=22-	=22-
1E-X	DE-	0ryy	0ryy	1.g	DE-	.	.	2.G/	DE-	.	2B-/	DE-	0r	.
.	.	.	.	.	.	.	.	.	.	.	2c/	-VS	.	.
.	.	.	.	.	.	.	.	4A/	-VS	.	.	.	.	.
1D	-VS	.	.	.	.	0r	.	2B-\	Rex	.	1d	Rex	.	.
.	.	.	.	2f/	-VS	.	.	2A/	.	.	.	.	.	.
*	*	*	*	*	*	*	*	*	*	*	*custos:d	*	*	*
!	!	!	!	!	!	!	!	!	!	!	!LO:LB:g=original	!	!	!
=23-	=23-	=23-	=23-	=23-	=23-	=23-	=23-	=23-	=23-	=23-	=23-	=23-	=23-	=23-
*	*	*	*	*	*	*	*	*	*	*	*xywh-#672:5285,2033,4187,815	*	*	*
4G\	Rex	0ryy	0ryy	4g/	Rex	.	.	4B-\	coe-	.	4d\	Rex	1r	.
4F\	coe-	.	.	4a\	coe-	.	.	4c\	.	.	4f\	coe-	.	.
2B-\	-leſ-	.	.	2b-\	-leſ-	.	.	2d\	-le-	.	2f\	-leſ-	.	.
*	*	*	*	*	*	*	*	*custos:c	*	*	*	*	*	*
!	!	!	!	!	!	!	!	!LO:LB:g=original	!	!	!	!	!	!
*	*	*	*	*	*	*	*	*xywh-#229:5044,1394,4353,863	*	*	*	*	*	*
1F	-tis,	.	.	1a	-tis,	2r	.	1c	-ſtis,	.	1f	-tis,	2r	.
.	.	.	.	.	.	1F\	DE-	.	.	.	.	.	1a\	DE-
=24-	=24-	=24-	=24-	=24-	=24-	=24-	=24-	=24-	=24-	=24-	=24-	=24-	=24-	=24-
0r	.	0ryy	0ryy	0r	.	.	.	1r	.	.	0r	.	.	.
.	.	.	.	.	.	2G\	-VS	.	.	.	.	.	2g/	-VS
.	.	.	.	.	.	2D/	Pa-	0r	.	.	.	.	2f#X/	Pa-
!	!	!	!	!	!	!	!	!	!	!	!	!	!LO:TX:t=P:problem:# below	!
.	.	.	.	.	.	4D/	-ter	.	.	.	.	.	4f#X/	-ter
.	.	.	.	.	.	4G\	om-	.	.	.	.	.	4g/	om-
=25-	=25-	=25-	=25-	=25-	=25-	=25-	=25-	=25-	=25-	=25-	=25-	=25-	=25-	=25-
1r	.	0ryy	0ryy	1r	.	2F\	-ni-	.	.	.	1r	.	2a\	-ni-
.	.	.	.	.	.	2D/	-po-	.	.	.	.	.	2b-\	-po-
4r	.	.	.	4r	.	1C	-tens,	4r	.	.	4r	.	1cc	-tens,
4.C/	Do-	.	.	4.e/	Do-	.	.	4c\	Do-	.	4.g\	Do-	.	.
.	.	.	.	.	.	.	.	4c\	-mi-	.	.	.	.	.
8D/	-(m)i-	.	.	8f/	-(m)i-	.	.	.	.	.	8f\	-(m)i-	.	.
4Eny\	-(n)e	.	.	4g/	-(n)e	.	.	4c\	-ne	.	4e\	-ne	.	.
=26-	=26-	=26-	=26-	=26-	=26-	=26-	=26-	=26-	=26-	=26-	=26-	=26-	=26-	=26-
2F\	Fi-	0ryy	0ryy	2a\	fi-	4r	.	2A/	Fi-	.	2c/	fi-	4r	.
.	.	.	.	.	.	4.F\	Do-	.	.	.	.	.	4.cc\	Do-
2FF/	-li,	.	.	2a\	-li,	.	.	2F/	-li,	.	2f\	-li	.	.
.	.	.	.	.	.	8G\	-(m)i-	.	.	.	.	.	8b-\	-(m)i-
.	.	.	.	.	.	4A\	-(n)e	.	.	.	.	.	4a\	-(n)e
4r	.	.	.	4r	.	2B-\	Fi-	4r	.	.	4r	.	2fny/	Fi-
*	*	*	*	*	*ij	*	*	*	*ij	*	*	*ij	*	*
4.BB-/	Do-	.	.	4.d/	Do-	.	.	4F/	Do-	.	4.f\	Do-	.	.
.	.	.	.	.	.	2BB-/	-li,	4F/	-mi-	.	.	.	2b-\	-li,
8C/	-(m)i-	.	.	8e/	-(m)i-	.	.	.	.	.	8e\	-(m)i-	.	.
4D/	-(n)e	.	.	4f/	-)(n)e	.	.	4B-\	-ne	.	4d\	-ne	.	.
=27-	=27-	=27-	=27-	=27-	=27-	=27-	=27-	=27-	=27-	=27-	=27-	=27-	=27-	=27-
2E-X\	Fi-	0ryy	0ryy	2g/	fi-	4r	.	2G/	Fi-	.	2B-/	fi-	4r	.
.	.	.	.	.	.	2E-X\	u-	.	.	.	.	.	2g/	v-
2E-\	-li	.	.	2g/	-li	.	.	2B-\	-li	.	2e-X\	-li	.	.
.	.	.	.	.	.	4E-\	-ni-	.	.	.	.	.	4g/	-ni-
4r	.	.	.	4r	.	4.BB-/	-ge-	4r	.	.	4r	.	4.f/	-ge-
*	*	*	*	*	*Xij	*	*	*	*Xij	*	*	*Xij	*	*
2BB-/	u-	.	.	2b-\	v-	.	.	2d\	v-	.	2f\	v-	.	.
.	.	.	.	.	.	8BB-/	-ni-	.	.	.	.	.	8f/	-ni-
.	.	.	.	.	.	2BB-/	-te,	.	.	.	.	.	2f/	-te
4BB-/	-ni-	.	.	4b-\	-ni-	.	.	4d\	-ni-	.	4f\	-ni-	.	.
=28-	=28-	=28-	=28-	=28-	=28-	=28-	=28-	=28-	=28-	=28-	=28-	=28-	=28-	=28-
4.FF/	-ge-	0ryy	0ryy	4.a\	-ge-	4r	.	4.c\	-ge-	.	4.f\	-ge-	4r	.
.	.	.	.	.	.	2F\	u-	.	.	.	.	.	2a\	.
8FF/	-ni-	.	.	8a\	-ni-	.	.	8c\	-ni-	.	8f\	-ni-	.	.
2FF/	-te,	.	.	2a\	-te,	.	.	2c\	-te	.	2f\	-te	.	.
.	.	.	.	.	.	4F\	-ni-	.	.	.	.	.	4a\	.
*	*	*	*	*	*ij	*	*	*	*ij	*	*	*ij	*custos:g	*
!	!	!	!	!	!	!	!	!	!	!	!	!	!LO:LB:g=original	!
*	*	*	*	*	*	*	*	*	*	*	*	*	*xywh-#825:5298,2747,4302,927	*
4r	.	.	.	4r	.	4.C/	-ge-	4r	.	.	4r	.	4.g/	.
2C/	u-	.	.	2cc\	v-	.	.	2c\	v-	.	2g\	v-	.	.
.	.	.	.	.	.	8C/	-ni-	.	.	.	.	.	8g/	.
.	.	.	.	.	.	2C/	-te	.	.	.	.	.	2g/	.
4C/	-ni-	.	.	4g/	-ni-	.	.	4c\	-ni-	.	4eny\	-ni-	.	.
*	*	*	*	*custos:b-	*	*custos:G	*ij	*	*	*	*	*	*	*
!	!	!	!	!LO:PB:g=original	!	!LO:LB:g=original	!	!	!	!	!	!	!	!
=29-	=29-	=29-	=29-	=29-	=29-	=29-	=29-	=29-	=29-	=29-	=29-	=29-	=29-	=29-
*	*	*	*	*xywh-#382:1123,531,4034,890	*	*xywh-#78:5064,2526,4415,858	*	*	*	*	*	*	*	*
4.GG/	-ge-	0ryy	0ryy	4.b-\	-ge-	4r	.	4.d\	-ge-	.	4.g\	-ge-	4r	.
.	.	.	.	.	.	2G\	u-	.	.	.	.	.	2g/	v-
8GG/	-ni-	.	.	8b-\	-ni-	.	.	8d\	-ni-	.	8g\	-ni-	.	.
2GG/	-te	.	.	2b-\	-te	.	.	2B-\	-te	.	2d\	-te	.	.
.	.	.	.	.	.	4G\	-ni-	.	.	.	.	.	4b-\	-ni-
*custos:D	*	*	*	*	*	*	*	*	*	*	*	*	*	*
!LO:LB:g=original	!	!	!	!	!	!	!	!	!	!	!	!	!	!
*xywh-#526:929,2626,4299,961	*	*	*	*	*	*	*	*	*	*	*	*	*	*
4r	.	.	.	4r	.	4.D/	-ge-	4r	.	.	4r	.	4.a\	-ge-
*	*ij	*	*	*	*	*	*	*	*	*	*	*Xij	*	*
2D/	u-	.	.	2dd\	v-	.	.	2A/	v-	.	2f\	v-	.	.
.	.	.	.	.	.	8D/	-ni-	.	.	.	.	.	8a\	-ni-
.	.	.	.	.	.	2D/	-te	.	.	.	.	.	2a\	-te
4D/	-ni-	.	.	4a\	-ni-	.	.	4F/	-ni-	.	4d\	-ni-	.	.
*	*	*	*	*	*	*	*Xij	*	*	*	*	*	*	*ij
=30-	=30-	=30-	=30-	=30-	=30-	=30-	=30-	=30-	=30-	=30-	=30-	=30-	=30-	=30-
4.AA/	-ge-	0ryy	0ryy	4.a\	-ge-	4r	.	4.E/	-ge-	.	4c/	-ge-	4r	.
.	.	.	.	.	.	2A\	u-	.	.	.	4e\	-ni-	2cc#X\	v-
8AA/	-ni-	.	.	8a\	-ni-	.	.	8E/	-ni-	.	.	.	.	.
2AA/	-te	.	.	2a\	-te	.	.	2A/	-te	.	2e\	-te	.	.
.	.	.	.	.	.	4A\	-ni-	.	.	.	.	.	4cc#\	-ni-
*	*Xij	*	*	*	*Xij	*	*	*custos:A	*Xij	*	*	*	*	*
!	!	!	!	!	!	!	!	!LO:LB:g=original	!	!	!	!	!	!
*	*	*	*	*	*	*	*	*xywh-#229:5044,2059,4263,923	*	*	*	*	*	*
1D	Je-	.	.	1a	Je-	4.D/	-ge-	1A	Je-	.	1d	Je-	4.dd\	-ge-
.	.	.	.	.	.	8D/	-ni-	.	.	.	.	.	8dd\	-ni-
.	.	.	.	.	.	2D,</	-te	.	.	.	.	.	2dd\	-te
*	*	*	*	*	*	*	*	*	*	*	*	*	*	*Xij
=31-	=31-	=31-	=31-	=31-	=31-	=31-	=31-	=31-	=31-	=31-	=31-	=31-	=31-	=31-
!	!	!	!	!LO:N:acc=#	!	!	!	!	!	!	!	!	!	!
1GG	-su	0ryy	0ryy	1bn	-su	1G	Je-	1G	-su	.	1d	-su	1dd	Je-
1C	Chri-	.	.	4cc\	Chri-	1C	-su	1G	Chri-	.	1e	chri-	1ccny	-su
.	.	.	.	8b\L	.	.	.	.	.	.	.	.	.	.
.	.	.	.	8a\J	.	.	.	.	.	.	.	.	.	.
.	.	.	.	2g/	.	.	.	.	.	.	.	.	.	.
*	*	*	*	*	*	*	*	*	*	*	*custos:e	*	*	*
!	!	!	!	!	!	!	!	!	!	!	!LO:LB:g=original	!	!	!
=32-	=32-	=32-	=32-	=32-	=32-	=32-	=32-	=32-	=32-	=32-	=32-	=32-	=32-	=32-
*	*	*	*	*	*	*	*	*	*	*	*xywh-#672:5335,2732,4313,789	*	*	*
1FF	-ſte,	0ryy	0ryy	1a	-ſte	1F	Chri-	1F	-ſte,	.	1c	-ſte,	1cc	Chri-
1r	.	.	.	1r	.	1BB-	-ſte	1ryy	.	.	1r	.	1b-	-ſte
=33-	=33-	=33-	=33-	=33-	=33-	=33-	=33-	=33-	=33-	=33-	=33-	=33-	=33-	=33-
*	*ij	*	*	*	*ij	*	*ij	*	*	*	*	*ij	*	*ij
0FF	Je-	0ryy	0ryy	0a	Je-	0F	Je-	0F	Je-	.	2.f\	Je-	0cc	Je-
.	.	.	.	.	.	.	.	.	.	.	8e\L	.	.	.
.	.	.	.	.	.	.	.	.	.	.	8d\J	.	.	.
.	.	.	.	.	.	.	.	.	.	.	1c	.	.	.
=34-	=34-	=34-	=34-	=34-	=34-	=34-	=34-	=34-	=34-	=34-	=34-	=34-	=34-	=34-
0C	-su	0ryy	0ryy	0g	-su	0C	-su	0G	-su	.	2.c/	-su	1cc	-su
.	.	.	.	.	.	.	.	.	.	.	4d\	.	.	.
.	.	.	.	.	.	.	.	.	.	.	1e	chri-	1.cc	Chri-
=35-	=35-	=35-	=35-	=35-	=35-	=35-	=35-	=35-	=35-	=35-	=35-	=35-	=35-	=35-
0GG	Chri-	0ryy	0ryy	0g	Chri-	0G	Chri-	0G	Chri-	.	0d	.	.	.
!	!	!	!	!	!	!	!	!	!	!	!	!	!LO:N:acc=#	!
.	.	.	.	.	.	.	.	.	.	.	.	.	4bn\	.
.	.	.	.	.	.	.	.	.	.	.	.	.	4a\	.
!	!	!	!	!	!	!	!	!	!	!	!	!	!LO:TX:t=P:problem:# above	!
!	!	!	!	!	!	!	!	!	!	!	!	!	!LO:N:acc=#	!
.	.	.	.	.	.	.	.	.	.	.	.	.	1bn	-ſte
*	*	*	*	*	*	*	*	*	*	*	*	*	*	*Xij
=36-	=36-	=36-	=36-	=36-	=36-	=36-	=36-	=36-	=36-	=36-	=36-	=36-	=36-	=36-
0C	-ſte	0ryy	0ryy	0g	-ſte	0C	-ſte	0G	-ſte,	.	0e	-ſte	0cc	Do-
*	*Xij	*	*	*	*Xij	*	*Xij	*	*	*	*	*Xij	*	*
=37-	=37-	=37-	=37-	=37-	=37-	=37-	=37-	=37-	=37-	=37-	=37-	=37-	=37-	=37-
00r	.	0ryy	0ryy	00r	.	2F\	Do-	00r	.	.	00r	.	2cc\	-mi-
.	.	.	.	.	.	4F\	-mi-	.	.	.	.	.	4cc\	-ne
.	.	.	.	.	.	4G\	-ne	.	.	.	.	.	4b-y\	.
*	*	*	*	*	*	*custos:D	*	*	*	*	*	*	*	*
!	!	!	!	!	!	!LO:PB:g=original	!	!	!	!	!	!	!	!
*	*	*	*	*	*	*xywh-#79:1037,396,4126,873	*	*	*	*	*	*	*	*
.	.	.	.	.	.	2D/	DE-	.	.	.	.	.	2a\	DE-
.	.	.	.	.	.	2E-X\	-VS	.	.	.	.	.	2g/	-VS
*	*	*	*	*	*	*	*	*	*	*	*	*	*custos:f	*
!	!	!	!	!	!	!	!	!	!	!	!	!	!LO:PB:g=original	!
=38-	=38-	=38-	=38-	=38-	=38-	=38-	=38-	=38-	=38-	=38-	=38-	=38-	=38-	=38-
*	*	*	*	*	*	*	*	*	*	*	*	*	*xywh-#826:1139,407,4218,915	*
.	.	0ryy	0ryy	.	.	1.D	a-	.	.	.	.	.	1.f	a-
.	.	.	.	.	.	2G\	-gnus	.	.	.	.	.	2g/	-gnus
=39-	=39-	=39-	=39-	=39-	=39-	=39-	=39-	=39-	=39-	=39-	=39-	=39-	=39-	=39-
1r	.	0ryy	0ryy	1r	.	1F	DE-	1r	.	.	1r	.	1a	DE-
4r	.	.	.	4r	.	2F\	-I	4r	.	.	4r	.	2a\	-I,
2F\	Fi-	.	.	2a\	Fi-	.	.	2c\	Fi-	.	2f\	Fi-	.	.
.	.	.	.	.	.	2r	.	.	.	.	.	.	2r	.
!	!	!	!	!LO:N:acc=#	!	!	!	!	!	!	!	!	!	!
4D/	-li-	.	.	4bn\	-li-	.	.	4d\	-li-	.	4f\	-li-	.	.
=40-	=40-	=40-	=40-	=40-	=40-	=40-	=40-	=40-	=40-	=40-	=40-	=40-	=40-	=40-
2C/	-us	0ryy	0ryy	2cc\	-us	4r	.	2G/	-us	.	2e\	-us	4r	.
.	.	.	.	.	.	2C/	Fi-	.	.	.	.	.	2g/	Fi-
2r	.	.	.	2r	.	.	.	2r	.	.	2r	.	.	.
.	.	.	.	.	.	4AA/	-li-	.	.	.	.	.	4a\	-li-
*	*	*	*	*custos:b-	*	*	*	*	*	*	*	*	*	*
!	!	!	!	!LO:LB:g=original	!	!	!	!	!	!	!	!	!	!
*	*	*	*	*xywh-#382:1137,1269,4034,808	*	*	*	*	*	*	*	*	*	*
4r	.	.	.	4r	.	1GG	-us	4r	.	.	4r	.	4.b-\	-us
4.G\	Pa-	.	.	4.b-y\	Pa-	.	.	2.d\	Pa-	.	2.g\	Pa-	.	.
.	.	.	.	.	.	.	.	.	.	.	.	.	8cc\	.
.	.	.	.	.	.	.	.	.	.	.	.	.	2dd\	.
8F\L	.	.	.	8a\L	.	.	.	.	.	.	.	.	.	.
8G\	.	.	.	8b-\	.	.	.	.	.	.	.	.	.	.
8A\J	.	.	.	8cc\J	.	.	.	.	.	.	.	.	.	.
=41-	=41-	=41-	=41-	=41-	=41-	=41-	=41-	=41-	=41-	=41-	=41-	=41-	=41-	=41-
2B-\	.	0ryy	0ryy	2dd\	.	4r	.	1d	-tris	.	1f	-tris,	4r	.
.	.	.	.	.	.	4.BB-/	Pa-	.	.	.	.	.	4.dd\	Pa-
2BB-/	-tris	.	.	2b-\	-tris	.	.	.	.	.	.	.	.	.
.	.	.	.	.	.	8C/L	.	.	.	.	.	.	8cc\	.
.	.	.	.	.	.	8D/	.	.	.	.	.	.	4b-\	.
.	.	.	.	.	.	8Eny/J	.	.	.	.	.	.	.	.
4r	.	.	.	4r	.	2F\	.	4r	.	.	4r	.	1a	-tris
*	*	*	*	*	*ij	*	*	*	*	*	*	*ij	*	*
4.FF/	Pa-	.	.	4.cc\	Fi-	.	.	4.A/	Pa-	.	4.a\	Pa-	.	.
.	.	.	.	.	.	2F\	-tris	.	.	.	.	.	.	.
8GG/L	.	.	.	8b-\	-li-	.	.	8B-\	.	.	8g\	.	.	.
8AA/	.	.	.	4a\	-us	.	.	4c\	.	.	4f\	.	.	.
8BB-/J	.	.	.	.	.	.	.	.	.	.	.	.	.	.
*custos:C	*	*	*	*	*	*	*	*custos:c	*	*	*	*	*	*
!LO:PB:g=original	!	!	!	!	!	!	!	!LO:LB:g=original	!	!	!	!	!	!
=42-	=42-	=42-	=42-	=42-	=42-	=42-	=42-	=42-	=42-	=42-	=42-	=42-	=42-	=42-
*xywh-#526:5159,602,4139,830	*	*	*	*	*	*	*	*xywh-#229:5014,2750,4150,916	*	*	*	*	*	*
2C/	.	0ryy	0ryy	4.g/	Pa-	4r	.	1c	-tris,	.	1e	-tris	4r	.
.	.	.	.	.	.	2C/	fi-	.	.	.	.	.	2g/	Fi-
.	.	.	.	8f/	.	.	.	.	.	.	.	.	.	.
2C/	-tris,	.	.	2e/	-tris	.	.	.	.	.	.	.	.	.
.	.	.	.	.	.	4AA/	-li-	.	.	.	.	.	4a\	-li-
4r	.	.	.	4r	.	1GG	-us	4r	.	.	4r	.	1b-	-us
*	*	*	*	*	*Xij	*	*	*	*	*	*	*Xij	*	*
2G\	Fi-	.	.	2dd\	Pa-	.	.	2B-\	Fi-	.	2d\	Fi-	.	.
4GG/	-li-	.	.	4b-\	.	.	.	4B-\	-li-	.	4d\	-li-	.	.
=43-	=43-	=43-	=43-	=43-	=43-	=43-	=43-	=43-	=43-	=43-	=43-	=43-	=43-	=43-
1D	-us	0ryy	0ryy	4.a\	.	4r	.	1d	-us	.	4.f\	-us	4r	.
*	*	*	*	*	*	*	*	*	*	*	*	*	*	*ij
.	.	.	.	.	.	4.D/	Pa-	.	.	.	.	.	2dd\	Fi-
.	.	.	.	8g/	.	.	.	.	.	.	8e\	.	.	.
.	.	.	.	2f/	-tris	.	.	.	.	.	2d\	.	.	.
.	.	.	.	.	.	8C/L	.	.	.	.	.	.	.	.
.	.	.	.	.	.	8BB-/	.	.	.	.	.	.	4dd\	-li-
.	.	.	.	.	.	8AA/J	.	.	.	.	.	.	.	.
!	!	!	!	!	!	!	!	!	!	!	!	!	!LO:TX:t=P:problem:# above	!
*	*	*	*	*	*ij	*custos:GG	*	*	*	*	*	*	*	*
!	!	!	!	!	!	!LO:LB:g=original	!	!	!	!	!	!	!LO:N:acc=#	!
*	*	*	*	*	*	*xywh-#79:1052,1091,4100,789	*	*	*	*	*	*	*	*
4r	.	.	.	4r	.	2GG/	.	4r	.	.	4r	.	1bn	-us
4.G\	Pa-	.	.	2.g/	Pa-	.	.	2.G/	Pa-	.	2d\	Pa-	.	.
.	.	.	.	.	.	2GG/	-tris	.	.	.	.	.	.	.
8F\L	.	.	.	.	.	.	.	.	.	.	.	.	.	.
8Eny\	.	.	.	.	.	.	.	.	.	.	4G/	-tris	.	.
8D\J	.	.	.	.	.	.	.	.	.	.	.	.	.	.
*	*	*	*	*	*	*	*	*	*	*	*	*	*	*Xij
=44-	=44-	=44-	=44-	=44-	=44-	=44-	=44-	=44-	=44-	=44-	=44-	=44-	=44-	=44-
2C/	.	0ryy	0ryy	1e	-tris	4r	.	4.G/	-tris	.	1c	.	4r	.
.	.	.	.	.	.	4.C/	Pa-	.	.	.	.	.	2cc\	fi-
.	.	.	.	.	.	.	.	8F/	.	.	.	.	.	.
2C/	-tris,	.	.	.	.	.	.	2E/	.	.	.	.	.	.
.	.	.	.	.	.	8BB-/L	.	.	.	.	.	.	.	.
.	.	.	.	.	.	8AA/	.	.	.	.	.	.	4cc\	-li-
.	.	.	.	.	.	8GG/J	.	.	.	.	.	.	.	.
*	*	*	*	*	*Xij	*	*	*	*	*	*	*	*custos:cc	*
!	!	!	!	!	!	!	!	!	!	!	!	!	!LO:LB:g=original	!
*	*	*	*	*	*	*	*	*	*	*	*	*	*xywh-#826:1119,1178,4275,868	*
4r	.	.	.	4r	.	2FF/	.	4r	.	.	4r	.	4.cc\	-us
4.F\	Pa-	.	.	2.a\	Pa-	.	.	4.A/	Pa-	.	2c/	Fi-	.	.
.	.	.	.	.	.	.	.	.	.	.	.	.	8b-y\	Pa-
.	.	.	.	.	.	2FF/	-tris	.	.	.	.	.	2a\	-tris
8E\L	.	.	.	.	.	.	.	8G/L	.	.	.	.	.	.
8D\	.	.	.	.	.	.	.	8F/	.	.	8d\L	-li-	.	.
8C\J	.	.	.	.	.	.	.	8E/J	.	.	8e\J	.	.	.
=45-	=45-	=45-	=45-	=45-	=45-	=45-	=45-	=45-	=45-	=45-	=45-	=45-	=45-	=45-
2BB-/	.	0ryy	0ryy	1b-	-tris	4r	.	2D/	.	.	2f\	-us	4r	.
*	*	*	*	*	*ij	*	*	*	*	*	*	*	*	*ij
.	.	.	.	.	.	4.BB-/	Pa-	.	.	.	.	.	4.dd\	Fi-
2BB-/	-tris	.	.	.	.	.	.	2F/	-tris	.	2d\	.	.	.
.	.	.	.	.	.	8C/L	.	.	.	.	.	.	8cc\	.
.	.	.	.	.	.	8D/	.	.	.	.	.	.	4b-\	.
.	.	.	.	.	.	8E/J	.	.	.	.	.	.	.	.
4r	.	.	.	4r	.	1F	.	2r	.	.	4r	.	4.a\	-li-
*	*ij	*	*	*	*	*	*	*	*	*	*	*	*	*
4.FF/	Pa-	.	.	4.cc\	Fi-	.	.	.	.	.	2.d\	Pa-	.	.
.	.	.	.	.	.	.	.	.	.	.	.	.	8b-\	.
*	*	*	*	*	*	*	*	*	*ij	*	*	*	*	*
.	.	.	.	.	.	.	.	2.C/	Fi-	.	.	.	2cc\	-us
8GG/L	.	.	.	8b-\	-li-	.	.	.	.	.	.	.	.	.
8AA/	.	.	.	4a\	-us	.	.	.	.	.	.	.	.	.
8BB-/J	.	.	.	.	.	.	.	.	.	.	.	.	.	.
=46-	=46-	=46-	=46-	=46-	=46-	=46-	=46-	=46-	=46-	=46-	=46-	=46-	=46-	=46-
0C	.	0ryy	0ryy	0g	Pa-	0C	.	.	.	.	00c;	-tris.	0cc	Pa-
.	.	.	.	.	.	.	.	4D/	-li-	.	.	.	.	.
.	.	.	.	.	.	.	.	4E/	-us	.	.	.	.	.
.	.	.	.	.	.	.	.	4F/	.	.	.	.	.	.
.	.	.	.	.	.	.	.	1G	Pa-	.	.	.	.	.
=47-	=47-	=47-	=47-	=47-	=47-	=47-	=47-	=47-	=47-	=47-	=47-	=47-	=47-	=47-
0FF;	-tris	0ryy	0ryy	0a;	-tris	0F;	-tris.	0F;	-tris	.	.	.	0cc;	-tris
*custos:C	*	*	*	*	*	*	*	*	*	*	*	*	*	*
!LO:LB:g=original	!	!	!	!	!	!	!	!LO:PB:g=original	!	!	!LO:LB:g=original	!	!	!
=48-	=48-	=48-	=48-	=48-	=48-	=48-	=48-	=48-	=48-	=48-	=48-	=48-	=48-	=48-
*xywh-#526:5171,1297,4119,830	*	*	*	*xywh-#382:837,2018,4329,768	*	*xywh-#79:1023,1737,4122,929	*	*xywh-#230:600,541,4435,1032	*	*	*xywh-#673:997,588,4288,810	*	*xywh-#826:932,2039,4487,899	*
*clefF4	*Xij	*yyclefC4	*yyclefC3	*clefC1	*Xij	*clefF4	*	*clefC4	*Xij	*	*clefC3	*	*clefC1	*Xij
*k[b-]	*	*yyk[b-]	*yyk[b-]	*k[b-]	*	*k[b-]	*	*k[b-]	*	*	*k[b-]	*	*k[b-]	*
*M2/1	*	*yyM2/1	*yyM2/1	*M2/1	*	*M2/1	*	*M2/1	*	*	*M2/1	*	*M2/1	*
*met(C|)	*	*yymet(C|)	*yymet(C|)	*met(C|)	*	*met(C|)	*	*met(C|)	*	*	*met(C|)	*	*met(C|)	*
!LO:TX:b:i:t=Qui tollis&colon;:color=red	!	!	!	!LO:TX:b:i:t=Qui tollis&colon;:color=red	!	!	!	!LO:TX:b:i:t=Qui tollis&colon;:color=red	!	!	!LO:TX:b:i:t=Qui tollis&colon;:color=red	!	!	!
*	*	*	*	*	*	*	*color:red	*	*	*	*	*	*	*color:red
00r	.	0ryy	0ryy	00r	.	0F	Qui	00r	.	.	00r	.	0a	Qui
=49-	=49-	=49-	=49-	=49-	=49-	=49-	=49-	=49-	=49-	=49-	=49-	=49-	=49-	=49-
.	.	0ryy	0ryy	.	.	0D	tol-	.	.	.	.	.	1.f	tol-
.	.	.	.	.	.	.	.	.	.	.	.	.	2d/	.
=50-	=50-	=50-	=50-	=50-	=50-	=50-	=50-	=50-	=50-	=50-	=50-	=50-	=50-	=50-
00r	.	0ryy	0ryy	00r	.	0C	-lis	00r	.	.	00r	.	0g	-lis
=51-	=51-	=51-	=51-	=51-	=51-	=51-	=51-	=51-	=51-	=51-	=51-	=51-	=51-	=51-
.	.	0ryy	0ryy	.	.	4F\	pec-	.	.	.	.	.	4a\	pec-
.	.	.	.	.	.	2B-\	-ca-	.	.	.	.	.	2b-\	-ca-
.	.	.	.	.	.	4F\	-ta	.	.	.	.	.	4a\	-ta
.	.	.	.	.	.	1G	mun-	.	.	.	.	.	1g	mun-
=52-	=52-	=52-	=52-	=52-	=52-	=52-	=52-	=52-	=52-	=52-	=52-	=52-	=52-	=52-
2r	.	0ryy	0ryy	2r	.	1C	-di,	2r	.	.	2r	.	1g	-di,
1C	Mi-	.	.	1e	Mi-	.	.	1G	Mi-	.	1c	Mi-	.	.
.	.	.	.	.	.	1r	.	.	.	.	.	.	1r	.
!	!	!	!	!	!	!	!	!	!	!	!LO:TX:t=P:problem:# below	!	!	!
2AA/	-ſe-	.	.	2e/	-ſe-	.	.	2A/	-ſe-	.	2c#X/	-ſe-	.	.
*	*	*	*	*	*	*	*color:auto	*	*	*	*	*	*	*color:auto
=53-	=53-	=53-	=53-	=53-	=53-	=53-	=53-	=53-	=53-	=53-	=53-	=53-	=53-	=53-
!	!	!	!	!	!	!	!	!	!	!	!LO:TX:t=P:problem:# below	!	!	!
2AA/	-re-	0ryy	0ryy	2e/	-re-	0r	.	2A/	-re-	.	2c#X/	-re-	0r	.
2D/	-re	.	.	2f#X,/	-re	.	.	2A/	-re	.	2d\	-re	.	.
1GG	no-	.	.	1.g	no-	.	.	1B-	nos-	.	1d	noſ-	.	.
=54-	=54-	=54-	=54-	=54-	=54-	=54-	=54-	=54-	=54-	=54-	=54-	=54-	=54-	=54-
0D	-bis,	0ryy	0ryy	.	.	1r	.	0A	-tri.	.	0d	-tri,	1r	.
.	.	.	.	4fny/	.	.	.	.	.	.	.	.	.	.
.	.	.	.	4e/	.	.	.	.	.	.	.	.	.	.
.	.	.	.	1f	-stri,	2r	.	.	.	.	.	.	2r	.
*	*	*	*	*	*	*	*	*	*	*	*	*	*	*ij
.	.	.	.	.	.	2D/	qui	.	.	.	.	.	2f#X/	Qui
=55-	=55-	=55-	=55-	=55-	=55-	=55-	=55-	=55-	=55-	=55-	=55-	=55-	=55-	=55-
00r	.	0ryy	0ryy	00r	.	1G	tol-	00r	.	.	00r	.	1g	tol-
.	.	.	.	.	.	4C/	-lis	.	.	.	.	.	4g/	-lis
.	.	.	.	.	.	4C/	pec-	.	.	.	.	.	4g/	pec-
.	.	.	.	.	.	4.F\	-ca-	.	.	.	.	.	2a\	-ca-
.	.	.	.	.	.	8E\	.	.	.	.	.	.	.	.
=56-	=56-	=56-	=56-	=56-	=56-	=56-	=56-	=56-	=56-	=56-	=56-	=56-	=56-	=56-
.	.	0ryy	0ryy	.	.	4D/	.	.	.	.	.	.	4a\	-ta
.	.	.	.	.	.	4BB-/	-ta	.	.	.	.	.	2b-\	mun-
.	.	.	.	.	.	2F\	mun-	.	.	.	.	.	.	.
.	.	.	.	.	.	.	.	.	.	.	.	.	4a\	.
.	.	.	.	.	.	1BB-,<	-di,	.	.	.	.	.	1b-	-di
=57-	=57-	=57-	=57-	=57-	=57-	=57-	=57-	=57-	=57-	=57-	=57-	=57-	=57-	=57-
*yyM3/1	*	*yyM3/1	*yyM3/1	*yyM3/1	*	*yyM3/1	*	*yyM3/1	*	*	*yyM3/1	*	*yyM3/1	*Xij
*col	*	*	*	*col	*	*col	*	*col	*	*	*col	*	*col	*
1.FF	su-	1%3ryy	1%3ryy	1.a	Su-	1.F	ſu-	1.F	su-	.	1.cny	su-	1.cc	su-
2FF/	-sci-	.	.	2a\	-sci-	2F\	-sci-	2F/	-sci-	.	2c/	-sci-	2cc\	-sci-
1FF,	-pe	.	.	1a,	-pe	1F	-pe	1F,<	-pe	.	1c,	-pe	1cc,	-pe
*	*ij	*	*	*	*ij	*custos:C	*ij	*	*ij	*	*	*ij	*	*ij
!	!	!	!	!	!	!LO:LB:g=original	!	!	!	!	!	!	!	!
=58-	=58-	=58-	=58-	=58-	=58-	=58-	=58-	=58-	=58-	=58-	=58-	=58-	=58-	=58-
*	*	*	*	*	*	*xywh-#79:910,2499,4226,938	*	*	*	*	*	*	*	*
1.C	su-	1%3ryy	1%3ryy	1.g	su-	1.C	ſu-	1.G	su-	.	1.c	su-	1.cc	su-
2C/	-sci-	.	.	2g/	-sci-	2C/	-sci-	2G/	-sci-	.	2c/	-sci-	2cc\	-sci-
1C	-pe	.	.	1g,	-pe	1C,<	-pe	1G,<	-pe	.	1e,	-pe	1cc	-pe
*	*Xij	*	*	*	*	*	*Xij	*	*Xij	*	*	*	*	*
=59-	=59-	=59-	=59-	=59-	=59-	=59-	=59-	=59-	=59-	=59-	=59-	=59-	=59-	=59-
!	!	!	!	!	!	!	!	!	!	!	!LO:TX:t=P:problem:nuta niedomalowana w środku (lub wydrapnięta)	!	!	!
1.GG	su-	1%3ryy	1%3ryy	1.b-	su-	1.G	su-	1.G	su-	.	1.d	su-	1.dd	su-
2GG/	-sci-	.	.	2b-\	-sci-	2G\	-sci-	2G/	-sci-	.	2d\	-sci-	2dd\	-sci-
1GG	-pe	.	.	1b-,	-pe	1G	-pe	1G	-pe	.	1d	-pe	1dd	-pe
*	*	*	*	*	*Xij	*	*	*	*	*	*	*Xij	*custos:dd	*Xij
!	!	!	!	!	!	!	!	!	!	!	!	!	!LO:LB:g=original	!
=60-	=60-	=60-	=60-	=60-	=60-	=60-	=60-	=60-	=60-	=60-	=60-	=60-	=60-	=60-
*	*	*	*	*	*	*	*	*	*	*	*	*	*xywh-#826:1072,2871,4270,801	*
0D	de-	1%3ryy	1%3ryy	0a	de-	0D	de-	1A	de-	.	0d	de-	0dd	de-
.	.	.	.	.	.	.	.	1D	-pre-	.	.	.	.	.
!	!	!	!	!	!	!	!	!	!	!	!	!	!LO:N:acc=#	!
1GG	-pre-	.	.	1g	-pre-	1G	-pre-	2D/	-ca-	.	1d	-pre-	1bn	-pre-
.	.	.	.	.	.	.	.	2G/	-ti-	.	.	.	.	.
=61-	=61-	=61-	=61-	=61-	=61-	=61-	=61-	=61-	=61-	=61-	=61-	=61-	=61-	=61-
1.C	-ca-	1%3ryy	1%3ryy	1.g	-ca-	1.C	-ca-	0G	-o-	.	1.e	-ca-	1.cc	-ca-
2C/	-ti-	.	.	2g/	-ti-	2C/	-ti-	.	.	.	2e\	-ti-	2cc\	-ti-
1FF	-o-	.	.	1a	-o-	1F	-o-	1F	-ne(m),	.	1A	-o-	1cc	-o-
*	*	*	*	*custos:f	*	*	*	*custos:E	*	*	*custos:d	*	*	*
!	!	!	!	!LO:LB:g=original	!	!	!	!LO:LB:g=original	!	!	!LO:LB:g=original	!	!	!
=62-	=62-	=62-	=62-	=62-	=62-	=62-	=62-	=62-	=62-	=62-	=62-	=62-	=62-	=62-
*	*	*	*	*xywh-#382:1091,2634,4115,931	*	*	*	*xywh-#230:899,1360,4229,841	*	*	*xywh-#673:1245,1316,4035,718	*	*	*
1BB-	-nem	1%3ryy	1%3ryy	1f	-nem	1D	-nem	1r	.	.	1d	-nem	0dd	-nem
0AA	no-	.	.	0a	noſ-	0A	noſ-	0E	noſ-	.	0A	noſ-	.	.
.	.	.	.	.	.	.	.	.	.	.	.	.	1cc#X	noſ-
*Xcol	*	*	*	*Xcol	*	*Xcol	*	*Xcol	*	*	*Xcol	*	*Xcol	*
*custos:D	*	*	*	*	*	*	*	*	*	*	*	*	*	*
!LO:LB:g=original	!	!	!	!	!	!	!	!	!	!	!	!	!	!
=63-	=63-	=63-	=63-	=63-	=63-	=63-	=63-	=63-	=63-	=63-	=63-	=63-	=63-	=63-
*xywh-#526:5161,1933,4229,925	*	*	*	*	*	*	*	*	*	*	*	*	*	*
*yyM2/1	*	*yyM2/1	*yyM2/1	*yyM2/1	*	*yyM2/1	*	*yyM2/1	*	*	*yyM2/1	*	*yyM2/1	*
1D	-stra(m),	0ryy	0ryy	1a,	-tra(m),	1D	-tra(m),	1.D	-tram	.	1A	-tram	1dd	-tram,
!	!	!	!	!	!	!	!	!	!	!	!	!	!LO:N:acc=#	!
1GG	qui	.	.	1g	qui	1G	qui	.	.	.	2r	.	1bn	qui
.	.	.	.	.	.	.	.	2G/	qui	.	2d\	qui	.	.
=64-	=64-	=64-	=64-	=64-	=64-	=64-	=64-	=64-	=64-	=64-	=64-	=64-	=64-	=64-
1C	se-	0ryy	0ryy	1g	ſe-	1C	ſe-	1G	ſe-	.	1c	se-	1ccny	ſe-
1FF	-des,	.	.	1a	-des,	1F	-des	1F	-des,	.	1c	-des,	1cc	-des
=65-	=65-	=65-	=65-	=65-	=65-	=65-	=65-	=65-	=65-	=65-	=65-	=65-	=65-	=65-
1r	.	0ryy	0ryy	1r	.	4BB-/	ad	1r	.	.	1r	.	4dd\	ad
.	.	.	.	.	.	4.B-\	dex-	.	.	.	.	.	4.b-y\	dex-
.	.	.	.	.	.	8F\	-te-	.	.	.	.	.	8a\	-te-
.	.	.	.	.	.	4G\	-ra(m)	.	.	.	.	.	4g/	-ra(m)
!	!	!	!	!	!	!	!	!	!	!	!	!	!LO:TX:t=P:problem:# below	!
2r	.	.	.	2r	.	2D/	Pa-	2r	.	.	2r	.	2f#X/	Pa-
4GG/	ad	.	.	4dd\	ad	2G\	-tris,	4B-\	ad	.	4d\	ad	2g/	-tris,
4.G\	dex-	.	.	4.dd\	dex-	.	.	4.B-\	dex-	.	4.g\	dex-	.	.
*	*	*	*	*	*	*custos:BB-	*	*	*	*	*	*	*	*ij
!	!	!	!	!	!	!LO:PB:g=original	!	!	!	!	!	!	!	!
=66-	=66-	=66-	=66-	=66-	=66-	=66-	=66-	=66-	=66-	=66-	=66-	=66-	=66-	=66-
*	*	*	*	*	*	*xywh-#79:5073,417,4335,925	*	*	*	*	*	*	*	*
.	.	0ryy	0ryy	.	.	1r	.	.	.	.	.	.	1r	.
8A\	-te-	.	.	8cc\	-te-	.	.	8c\	-te-	.	8g\	-te-	.	.
4B-\	-ra(m)	.	.	4b-\	-ra(m)	.	.	4d\	-ram	.	4f\	-ra(m)	.	.
2F\	pa-	.	.	2a\	Pa-	.	.	2c\	Pa-	.	2f\	Pa-	.	.
2BB-/	-tris,	.	.	2b-\	-tris,	4BB-/	ad	2B-\	-tris,	.	2f\	-tris,	4b-\	ad
.	.	.	.	.	.	4.B-X\	dex-	.	.	.	.	.	4.dd\	dex-
2r	.	.	.	2r	.	.	.	2r	.	.	2r	.	.	.
.	.	.	.	.	.	8A\	-te-	.	.	.	.	.	8cc\	-te-
.	.	.	.	.	.	4G\	-ra(m)	.	.	.	.	.	4b-\	-ra(m)
=67-	=67-	=67-	=67-	=67-	=67-	=67-	=67-	=67-	=67-	=67-	=67-	=67-	=67-	=67-
1r	.	0ryy	0ryy	1r	.	1A	Pa-	1r	.	.	1r	.	1a	Pa-
2r	.	.	.	2r	.	1D	-tris,	2r	.	.	2r	.	1a	-tris
1D\	mi-	.	.	1f#X/	mi-	.	.	2A/	mi-	.	1d\	mi-	.	.
*	*	*	*	*	*	*	*	*	*	*	*	*	*	*Xij
=68-	=68-	=68-	=68-	=68-	=68-	=68-	=68-	=68-	=68-	=68-	=68-	=68-	=68-	=68-
.	.	0ryy	0ryy	.	.	00r	.	2A/	-ſe-	.	.	.	00r	.
2G\	-ſe-	.	.	1g	-se-	.	.	1B-	-re-	.	2d\	-ſe-	.	.
2E\	-re-	.	.	.	.	.	.	.	.	.	1c	-re-	.	.
2F\	-re	.	.	1fny/	-re-	.	.	1A\	-re	.	.	.	.	.
=69-	=69-	=69-	=69-	=69-	=69-	=69-	=69-	=69-	=69-	=69-	=69-	=69-	=69-	=69-
2.BB-/	no-	0ryy	0ryy	.	.	.	.	.	.	.	1B-	-re	.	.
.	.	.	.	2d/	-re	.	.	1G	no-	.	.	.	.	.
4C/	.	.	.	.	.	.	.	.	.	.	.	.	.	.
1D	.	.	.	1d	no-	.	.	.	.	.	1A	no-	.	.
.	.	.	.	.	.	.	.	2F/	.	.	.	.	.	.
=70-	=70-	=70-	=70-	=70-	=70-	=70-	=70-	=70-	=70-	=70-	=70-	=70-	=70-	=70-
!	!	!	!	!	!	!	!	!	!	!	!LO:N:acc=#	!	!	!
0GG	-ſtri,	0ryy	0ryy	0d	-ſtri,	2r	.	0G	-stri,	.	0Bn	-bis,	2r	.
.	.	.	.	.	.	1G	Quo-	.	.	.	.	.	1g	Quo-
.	.	.	.	.	.	2G\	-ni-	.	.	.	.	.	2g/	-ni-
*	*	*	*	*	*	*	*	*	*	*	*custos:c	*	*	*
!	!	!	!	!	!	!	!	!	!	!	!LO:LB:g=original	!	!	!
=71-	=71-	=71-	=71-	=71-	=71-	=71-	=71-	=71-	=71-	=71-	=71-	=71-	=71-	=71-
*	*	*	*	*	*	*	*	*	*	*	*xywh-#673:1239,1989,4030,713	*	*	*
4r	.	0ryy	0ryy	4r	.	1C	-a(m)	4r	.	.	4r	.	1g	-am
4C/	tu	.	.	4e/	tu	.	.	4G/	tu	.	4c/	tu	.	.
4E\	ſo-	.	.	4g/	ſo-	.	.	4C/	ſo-	.	4c/	ſo-	.	.
4C/	-lus	.	.	4e/	-lus	.	.	4c\	-lus	.	4g\	-lus	.	.
*	*	*	*	*	*	*	*	*custos:c	*	*	*	*	*custos:a	*
!	!	!	!	!	!	!	!	!LO:LB:g=original	!	!	!	!	!LO:PB:g=original	!
*	*	*	*	*	*	*	*	*xywh-#230:915,2049,4127,813	*	*	*	*	*xywh-#826:5346,366,4389,951	*
2F\	Sanc-	.	.	2a\	Sanc-	4r	.	2c\	sanc-	.	2f\	sanc-	4r	.
.	.	.	.	.	.	4FF/	tu	.	.	.	.	.	4a\	tu
2F\	-tus	.	.	2a\	-t(us),	4AA/	ſo-	2c\	-tus,	.	2f\	-tus	4cc\	ſo-
.	.	.	.	.	.	4FF/	-l(us)	.	.	.	.	.	4a\	-lus
*custos:C	*	*	*	*custos:e	*ij	*	*	*	*	*	*	*	*	*
!LO:LB:g=original	!	!	!	!LO:PB:g=original	!	!	!	!	!	!	!	!	!	!
=72-	=72-	=72-	=72-	=72-	=72-	=72-	=72-	=72-	=72-	=72-	=72-	=72-	=72-	=72-
*xywh-#526:5221,2704,4044,850	*	*	*	*xywh-#382:5211,502,4309,910	*	*	*	*	*	*	*	*	*	*
4r	.	0ryy	0ryy	4r	.	2C/	sanc-	4r	.	.	4r	.	2g/	Sanc-
4C/	tu	.	.	4e/	tu	.	.	4c\	tu	.	4g\	tu	.	.
4E\	ſo-	.	.	4g/	ſo-	2C/	-t(us),	4C/	ſo-	.	4e\	ſo-	2g/	-tus,
4C/	-lus	.	.	4e/	-lus	.	.	4c\	-lus	.	4g\	-lus	.	.
4.F\	Do-	.	.	4.a\	Sanc-	4r	.	4.c\	Do-	.	4.f\	Do-	4r	.
.	.	.	.	.	.	4FF/	tu	.	.	.	.	.	4a\	tu
8F\	-mi-	.	.	8a\	.	.	.	8c\	-(m)i-	.	8f\	-(m)i-	.	.
2F\	-nus,	.	.	2a\	-t(us)	4AA/	ſo-	2c\	-(nus),	.	2f\	-(nus),	4cc\	ſo-
.	.	.	.	.	.	4FF/	-lus	.	.	.	.	.	4a\	-lus
*	*	*	*	*	*Xij	*	*	*	*	*	*	*	*	*
=73-	=73-	=73-	=73-	=73-	=73-	=73-	=73-	=73-	=73-	=73-	=73-	=73-	=73-	=73-
2r	.	0ryy	0ryy	2r	.	4.C/	Do-	2r	.	.	2r	.	4.g/	Do-
.	.	.	.	.	.	8C/	-(m)i-	.	.	.	.	.	8g/	-(m)i-
4r	.	.	.	4r	.	2C/	-(nus),	4r	.	.	4r	.	2g/	-(nus),
4C/	tu	.	.	4cc\	tu	.	.	4G/	tu	.	4c/	tu	.	.
2G\	ſo-	.	.	2b-\	ſo-	4r	.	2B-\	ſo-	.	2d\	ſo-	4r	.
.	.	.	.	.	.	4GG/	tu	.	.	.	.	.	4g/	tu
!	!	!	!	!	!	!	!	!	!	!	!	!	!LO:TX:t=P:problem:# below	!
4D/	-lus	.	.	4a\	-lus	2D/	ſo-	4d,\	-lus	.	4d\	-lus	2f#X/	ſo-
*	*	*	*	*	*ij	*	*	*	*ij	*	*	*ij	*	*
4D/	tu	.	.	4a\	tu	.	.	4d\	tu	.	4A/	tu	.	.
=74-	=74-	=74-	=74-	=74-	=74-	=74-	=74-	=74-	=74-	=74-	=74-	=74-	=74-	=74-
!	!	!	!	!LO:N:acc=#	!	!	!	!	!	!	!	!	!	!
2G\	ſo-	0ryy	0ryy	2bn\	ſo-	4GG/	-lus	2d\	ſo-	.	2G/	ſo-	4g/	-lus
*	*	*	*	*	*	*	*	*	*	*	*	*	*	*ij
.	.	.	.	.	.	4GG/	tu	.	.	.	.	.	4g/	tu
4C/	-lus	.	.	4cc\	-lus	2C/	ſo-	4c\	-lus	.	4G/	-lus	2g/	ſo-
*	*	*	*	*	*Xij	*	*	*	*Xij	*	*	*Xij	*	*
4C/	al-	.	.	4cc\	al-	.	.	4c\	al-	.	4g\	al-	.	.
4.F\	-tiſ-	.	.	4.cc\	-tiſ-	4FF/	-lus	4.c\	-tiſ-	.	4.f\	-tiſ-	4a\	-lus
*	*	*	*	*	*	*	*	*	*	*	*	*	*	*Xij
.	.	.	.	.	.	4FF/	al-	.	.	.	.	.	4a\	al-
8F\	-si-	.	.	8cc\	-si-	.	.	8c\	-si-	.	8f\	-si-	.	.
2BB-/	-mus,	.	.	2dd\	-mus	4.BB-/	-tiſ-	2B-\	-mus,	.	2f\	-mus	4.b-\	-tiſ-
.	.	.	.	.	.	8BB-/	-si-	.	.	.	.	.	8b-\	-si-
*	*	*	*	*	*	*custos:F	*	*	*	*	*	*	*	*
!	!	!	!	!	!	!LO:LB:g=original	!	!	!	!	!	!	!	!
=75-	=75-	=75-	=75-	=75-	=75-	=75-	=75-	=75-	=75-	=75-	=75-	=75-	=75-	=75-
*	*	*	*	*	*	*xywh-#79:5092,1157,4308,861	*	*	*	*	*	*	*	*
1r	.	0ryy	0ryy	1r	.	1F,	-mus,	1r	.	.	1r	.	1a	-mus
0C	Je-	.	.	0g	Je-	0C	Je-	0G	Je-	.	2.c/	Je-	0cc	Je-
.	.	.	.	.	.	.	.	.	.	.	4d\	.	.	.
=76-	=76-	=76-	=76-	=76-	=76-	=76-	=76-	=76-	=76-	=76-	=76-	=76-	=76-	=76-
.	.	0ryy	0ryy	.	.	.	.	.	.	.	4e\	.	.	.
.	.	.	.	.	.	.	.	.	.	.	4f\	.	.	.
.	.	.	.	.	.	.	.	.	.	.	1g	.	.	.
1GG	-su	.	.	1b-y	-su	1G	-su	1G	-su	.	.	.	1dd	-su
.	.	.	.	.	.	.	.	.	.	.	2d\	-su	.	.
*	*	*	*	*	*	*	*	*	*	*	*custos:d	*	*	*
!	!	!	!	!	!	!	!	!	!	!	!LO:LB:g=original	!	!	!
=77-	=77-	=77-	=77-	=77-	=77-	=77-	=77-	=77-	=77-	=77-	=77-	=77-	=77-	=77-
*	*	*	*	*	*	*	*	*	*	*	*xywh-#673:1274,2652,4009,886	*	*	*
0D	Chri-	0ryy	0ryy	0a	Chri-	0D	Chri-	0A	Chri-	.	0d	Chri-	0dd	Chri-
=78-	=78-	=78-	=78-	=78-	=78-	=78-	=78-	=78-	=78-	=78-	=78-	=78-	=78-	=78-
!	!	!	!	!LO:N:acc=#	!	!	!	!	!	!	!	!	!	!
0GG,<	-ſte	0ryy	0ryy	0bn	-ste	0G	-ſte,	0G,<	-ſte	.	0d	-ſte	0dd	-ſte
=79-	=79-	=79-	=79-	=79-	=79-	=79-	=79-	=79-	=79-	=79-	=79-	=79-	=79-	=79-
*	*	*	*	*	*	*	*	*	*	*	*	*ij	*	*ij
0C	Je-	0ryy	0ryy	2.cc\	Je-	0C	Je-	0G	Je-	.	0e	Je-	0cc	Je-
.	.	.	.	8b-y\L	.	.	.	.	.	.	.	.	.	.
.	.	.	.	8a\J	.	.	.	.	.	.	.	.	.	.
.	.	.	.	1g	.	.	.	.	.	.	.	.	.	.
*	*	*	*	*custos:a	*	*	*	*	*	*	*	*	*	*
!	!	!	!	!LO:LB:g=original	!	!	!	!	!	!	!	!	!	!
=80-	=80-	=80-	=80-	=80-	=80-	=80-	=80-	=80-	=80-	=80-	=80-	=80-	=80-	=80-
*	*	*	*	*xywh-#382:5115,1260,4426,931	*	*	*	*	*	*	*	*	*	*
0FF	-su	0ryy	0ryy	0a	-su	0F	-su	0F	-su	.	0A	-su	0cc	-su
*	*	*	*	*	*	*	*	*custos:F	*	*	*	*	*	*
!	!	!	!	!	!	!	!	!LO:LB:g=original	!	!	!	!	!	!
=81-	=81-	=81-	=81-	=81-	=81-	=81-	=81-	=81-	=81-	=81-	=81-	=81-	=81-	=81-
*	*	*	*	*	*	*	*	*xywh-#230:930,2715,4135,969	*	*	*	*	*	*
0BB-	Chri-	0ryy	0ryy	0b-	Chri-	0BB-	Chri-	0F	Chri-	.	2.d\	Chri-	0dd	Chri-
.	.	.	.	.	.	.	.	.	.	.	4c/	.	.	.
.	.	.	.	.	.	.	.	.	.	.	1B-y	.	.	.
=82-	=82-	=82-	=82-	=82-	=82-	=82-	=82-	=82-	=82-	=82-	=82-	=82-	=82-	=82-
!LO:TX:t=P:problem:błędny custos	!	!	!	!	!	!	!	!	!	!	!	!	!g	!
0FF	-ſte,	0ryy	0ryy	0a,	-ſte,	0F	-ſte,	0F,<	-ſte	.	0c,	-ſte	0cc	-ſte
*custos:C	*	*	*	*	*	*	*	*	*	*	*	*Xij	*custos:g	*Xij
!LO:PB:g=original	!	!	!	!	!	!	!	!	!	!	!	!	!LO:LB:g=original	!
=83-	=83-	=83-	=83-	=83-	=83-	=83-	=83-	=83-	=83-	=83-	=83-	=83-	=83-	=83-
*xywh-#527:1115,712,4079,818	*	*	*	*	*	*	*	*	*	*	*	*	*xywh-#826:5367,1255,4363,853	*
4F\	cum	0ryy	0ryy	4a\	cum	1r	.	2A/	cum	.	4c/	cu(m)	1r	.
2F\	Sanc-	.	.	2a\	Sanc-	.	.	.	.	.	2c/	Sanc-	.	.
.	.	.	.	.	.	.	.	4F/	Sanc-	.	.	.	.	.
4E\	-to	.	.	4g/	-to	.	.	4G/	-to	.	4c/	-to	.	.
4.D/	Spi-	.	.	4.f/	Spi-	2r	.	4A/	Spi-	.	4.d\	Spi-	2r	.
!	!	!	!	!	!	!	!	!LO:N:acc=#	!	!	!	!	!	!
.	.	.	.	.	.	.	.	4Bn\	-ri-	.	.	.	.	.
8D/	-ri-	.	.	8f/	-ri-	.	.	.	.	.	8d\	-ri-	.	.
2C/	-tu,	.	.	2e/	-tu	4C/	cu(m)	2c\	-tu,	.	2G/	-tu,	4g/	Cum
.	.	.	.	.	.	2C/	Sanc-	.	.	.	.	.	2g/	Sanc-
=84-	=84-	=84-	=84-	=84-	=84-	=84-	=84-	=84-	=84-	=84-	=84-	=84-	=84-	=84-
1r	.	0ryy	0ryy	1r	.	.	.	1r	.	.	1r	.	.	.
.	.	.	.	.	.	4BB-/	-to	.	.	.	.	.	4g/	-to
.	.	.	.	.	.	4.AA/	Spi-	.	.	.	.	.	4.a\	Spi-
.	.	.	.	.	.	8AA/	-ri-	.	.	.	.	.	8a\	-ri-
*	*ij	*	*	*	*ij	*	*	*	*ij	*	*	*ij	*	*
4G\	cum	.	.	4g/	cum	2GG/	-tu,	2B-y\	cum	.	4d\	cu(m)	2d/	-tu,
2G\	Sanc-	.	.	2b-\	Sanc-	.	.	.	.	.	4d\	Sanc-	.	.
.	.	.	.	.	.	2r	.	4d\	Sanc-	.	4B-/	-to	2r	.
4F\	-to	.	.	4a\	-to	.	.	4A/	-to	.	2d\	Spi-	.	.
=85-	=85-	=85-	=85-	=85-	=85-	=85-	=85-	=85-	=85-	=85-	=85-	=85-	=85-	=85-
4.E-X\	Spi-	0ryy	0ryy	4.g/	Spi-	2r	.	4B-\	Spi-	.	.	.	2r	.
.	.	.	.	.	.	.	.	4G/	-ri-	.	4c/	-ri-	.	.
8E-\	-ri-	.	.	8g/	-ri-	.	.	.	.	.	.	.	.	.
2D/	-tu	.	.	2f#X/	-tu	4r	.	2A/	-tu	.	2d\	-tu	4r	.
!	!	!	!	!	!	!	!	!	!	!	!	!	!LO:TX:t=P:problem:# below	!
.	.	.	.	.	.	4D/	in	.	.	.	.	.	4f#X/	in
2r	.	.	.	2r	.	4.G\	glo-	2r	.	.	2r	.	4.g/	glo-
.	.	.	.	.	.	8G\	-ri-	.	.	.	.	.	8g/	-ri-
4r	.	.	.	4r	.	2F\	-a,	4r	.	.	4r	.	2a\	-a,
*	*Xij	*	*	*	*Xij	*	*	*	*Xij	*	*	*Xij	*	*
4F\	in	.	.	4a\	in	.	.	4A/	in	.	4c/	in	.	.
=86-	=86-	=86-	=86-	=86-	=86-	=86-	=86-	=86-	=86-	=86-	=86-	=86-	=86-	=86-
4.BB-/	glo-	0ryy	0ryy	4.b-\	glo-	2r	.	4.d\	glo-	.	4.f\	glo-	2r	.
8BB-/	-ri-	.	.	8b-\	-ri-	.	.	8d\	-ri-	.	8f\	-ri-	.	.
2BB-/	-a	.	.	2b-\	-a,	4r	.	2d\	-a,	.	2f\	-a	4r	.
*	*	*	*	*	*	*	*	*	*	*	*	*	*	*ij
.	.	.	.	.	.	4B-\	in	.	.	.	.	.	4b-\	in
*	*ij	*	*	*	*ij	*	*	*	*	*	*custos:f	*ij	*	*
!	!	!	!	!	!	!	!	!	!	!	!LO:PB:g=original	!	!	!
*	*	*	*	*	*	*	*	*	*	*	*xywh-#673:5293,515,4166,921	*	*	*
2r	.	.	.	2r	.	4.F\	glo-	2r	.	.	2r	.	4.a\	glo-
.	.	.	.	.	.	8F\	-ri-	.	.	.	.	.	8a\	-ri-
4r	.	.	.	4r	.	2F\	-a	4r	.	.	4r	.	2a\	-a
4F\	in	.	.	4cc\	in	.	.	4A/	in	.	4f\	in	.	.
*	*	*	*	*	*	*custos:B-	*	*	*	*	*	*	*	*Xij
!	!	!	!	!	!	!LO:LB:g=original	!	!	!	!	!	!	!	!
=87-	=87-	=87-	=87-	=87-	=87-	=87-	=87-	=87-	=87-	=87-	=87-	=87-	=87-	=87-
*	*	*	*	*	*	*xywh-#79:5065,1833,4435,866	*	*	*	*	*	*	*	*
4.BB-/	glo-	0ryy	0ryy	4.dd\	glo-	2r	.	4.B-\	glo-	.	4.f\	glo-	2r	.
8BB-/	-ri-	.	.	8dd\	-ri-	.	.	8B-\	-ri-	.	8f\	-ri-	.	.
2BB-/	-a	.	.	2dd\	-a	4r	.	2B-\	-a,	.	2f\	-a	4r	.
.	.	.	.	.	.	2B-\	DE-	.	.	.	.	.	2b-\	DE-
*	*	*	*	*custos:g	*Xij	*	*	*	*	*	*	*Xij	*	*
!	!	!	!	!LO:LB:g=original	!	!	!	!	!	!	!	!	!	!
*	*	*	*	*xywh-#382:5151,1984,4222,859	*	*	*	*	*	*	*	*	*	*
1r	.	.	.	1r	.	.	.	1r	.	.	1r	.	.	.
.	.	.	.	.	.	4G\	-I	.	.	.	.	.	4b-\	-I
.	.	.	.	.	.	4A\	pa-	.	.	.	.	.	4a\	Pa-
.	.	.	.	.	.	4F\	-tris	.	.	.	.	.	4a\	-tris
=88-	=88-	=88-	=88-	=88-	=88-	=88-	=88-	=88-	=88-	=88-	=88-	=88-	=88-	=88-
4r	.	0ryy	0ryy	4r	.	2G\	A-	4r	.	.	4r	.	2g/	A-
4GG/	in	.	.	4g/	in	.	.	4G/	in	.	4d\	in	.	.
4.C/	glo-	.	.	4.e/	glo-	2C/	-men,	4.G/	glo-	.	4.c/	glo-	2g/	-men,
8C/	-ri-	.	.	8e/	-ri-	.	.	8G/	-ria,	.	8c/	-ri-	.	.
*custos:C	*	*	*	*	*	*	*	*custos:G	*	*	*	*	*	*
!LO:LB:g=original	!	!	!	!	!	!	!	!LO:PB:g=original	!	!	!	!	!	!
*xywh-#527:1097,1386,4102,818	*	*	*	*	*	*	*	*xywh-#230:5031,592,4260,1020	*	*	*	*	*	*
2C/	-a	.	.	2g/	-a	4r	.	2G/	a,	.	2e\	-a	4r	.
.	.	.	.	.	.	4C/	in	.	.	.	.	.	4g/	in
2r	.	.	.	2r	.	4.F\	glo-	2r	.	.	2r	.	4.a\	glo-
.	.	.	.	.	.	8F\	-ri-	.	.	.	.	.	8a\	-ri-
=89-	=89-	=89-	=89-	=89-	=89-	=89-	=89-	=89-	=89-	=89-	=89-	=89-	=89-	=89-
4r	.	0ryy	0ryy	4r	.	2F\	-a,	4r	.	.	4r	.	2a\	-a,
*	*Xij	*	*	*	*ij	*	*	*	*	*	*	*ij	*	*
4FF/	in	.	.	4a\	in	.	.	4c\	in	.	4f\	in	.	.
4.BB-/	glo-	.	.	4.b-\	glo-	2r	.	4.d\	glo-	.	4.f\	glo-	2r	.
8BB-/	-ri-	.	.	8b-\	-ri-	.	.	8d\	-ri-	.	8f\	-ri-	.	.
2BB-/	-a	.	.	2b-\	-a	4r	.	2d\	-a,	.	2f\	-a	4r	.
.	.	.	.	.	.	2B-\	DE-	.	.	.	.	.	2dd\	DE-
2r	.	.	.	2r	.	.	.	2r	.	.	2r	.	.	.
.	.	.	.	.	.	4F\	-I	.	.	.	.	.	4cc\	-I
*	*ij	*	*	*	*Xij	*	*	*	*	*	*	*Xij	*custos:b-	*
!	!	!	!	!	!	!	!	!	!	!	!	!	!LO:LB:g=original	!
=90-	=90-	=90-	=90-	=90-	=90-	=90-	=90-	=90-	=90-	=90-	=90-	=90-	=90-	=90-
*	*	*	*	*	*	*	*	*	*	*	*	*	*xywh-#826:5357,2016,4260,894	*
2r	.	0ryy	0ryy	2r	.	4G\	pa-	2r	.	.	2r	.	4b-\	Pa-
.	.	.	.	.	.	4D/	-tris	.	.	.	.	.	4a\	-tris
4r	.	.	.	4r	.	2A\	A-	4r	.	.	4r	.	2a\	A-
4AA/	in	.	.	4a\	in	.	.	4A/	in	.	4e\	in	.	.
!	!	!	!	!	!	!	!	!	!	!	!LO:TX:t=P:problem:# above	!	!	!
4.D/	glo-	.	.	4.a\	glo-	2D/	-men,	4.A/	glo-	.	4.f#X\	glo-	2a\	-men,
8D/	-ri-	.	.	8a\	-ri-	.	.	8A/	-ri-	.	8f#\	-ri-	.	.
2D/	-a	.	.	2a\	-a	4r	.	2d\	-a	.	2f#\	-a	4r	.
.	.	.	.	.	.	4D/	in	.	.	.	.	.	4a\	in
=91-	=91-	=91-	=91-	=91-	=91-	=91-	=91-	=91-	=91-	=91-	=91-	=91-	=91-	=91-
!	!	!	!	!	!	!	!	!	!	!	!	!	!LO:N:acc=#	!
2r	.	0ryy	0ryy	2r	.	4.G\	glo-	2r	.	.	2r	.	4.bn\	glo-
.	.	.	.	.	.	8G\	-ri-	.	.	.	.	.	8b\	-ri-
4r	.	.	.	4r	.	2G\	-a,	4r	.	.	4r	.	2b\	-a
*	*	*	*	*	*ij	*	*	*	*ij	*	*	*ij	*	*
4GG/	in	.	.	4g/	in	.	.	4G/	in	.	4d\	in	.	.
4.C/	glo-	.	.	4.g/	glo-	4r	.	4G/	glo-	.	4.e\	glo-	4r	.
.	.	.	.	.	.	2C/	DE-	4c\	-ri-	.	.	.	2cc\	DE-
8C/	-ri-	.	.	8g/	-ri-	.	.	.	.	.	8e\	-ri-	.	.
2C/	-a	.	.	2g/	-a	.	.	2c\	-a	.	2e\	-a	.	.
.	.	.	.	.	.	4C/	-I	.	.	.	.	.	4cc\	-I
*	*Xij	*	*	*	*Xij	*	*	*	*Xij	*	*	*Xij	*	*
=92-	=92-	=92-	=92-	=92-	=92-	=92-	=92-	=92-	=92-	=92-	=92-	=92-	=92-	=92-
2r	.	0ryy	0ryy	2r	.	4F\	Pa-	2r	.	.	2r	.	4cc\	Pa-
.	.	.	.	.	.	4FF/	-tris	.	.	.	.	.	4a\	-tris
4r	.	.	.	4r	.	1C	A-	4r	.	.	4r	.	1g	A-
2C/	DE-	.	.	2cc\	DE-	.	.	2G/	DE-	in	2c/	DE-	.	.
4C/	-I	.	.	4cc\	-I	.	.	4G/	-I	glo-	4c/	-I	.	.
4F\	Pa-	.	.	4cc\	Pa-	2FF/	-men,	4F/	Pa-	-ri-	4c/	Pa-	2a\	-men,
4FF/	-tris	.	.	4a\	-tris	.	.	4c\	-tris	-a	2fny\	-tris	.	.
*	*	*	*	*	*	*custos:C	*	*	*	*	*custos:c	*	*	*ij
!	!	!	!	!	!	!LO:LB:g=original	!	!	!	!	!LO:LB:g=original	!	!	!
=93-	=93-	=93-	=93-	=93-	=93-	=93-	=93-	=93-	=93-	=93-	=93-	=93-	=93-	=93-
*	*	*	*	*	*	*xywh-#79:5046,2536,4244,961	*	*	*	*	*xywh-#673:5288,1305,4359,794	*	*	*
1C	A-	0ryy	0ryy	1g	A-	4r	.	1c	A-	.	.	.	4r	.
.	.	.	.	.	.	2C/	DE-	.	.	.	8e\L	A-	2cc\	DE-
.	.	.	.	.	.	.	.	.	.	.	8d\J	.	.	.
.	.	.	.	.	.	.	.	.	.	.	2e\	-men,	.	.
.	.	.	.	.	.	4C/	-I	.	.	.	.	.	4cc\	-I
!	!	!	!	!a	!	!	!	!	!	!	!	!	!	!
1FF	-men,	.	.	1a	-men,	2F\	Pa-	1c	-men,	.	1f	.	2cc\	Pa-
.	.	.	.	.	.	2FF/	-tris	.	.	.	.	.	2a\	-tris
*	*	*	*	*custos:a	*	*	*	*	*	*	*	*	*	*
!	!	!	!	!LO:LB:g=original	!	!	!	!	!	!	!	!	!	!
=94-	=94-	=94-	=94-	=94-	=94-	=94-	=94-	=94-	=94-	=94-	=94-	=94-	=94-	=94-
*	*	*	*	*xywh-#382:5171,2661,4151,992	*	*	*	*	*	*	*	*	*	*
1r	.	0ryy	0ryy	1r	.	1C	A-	1r	.	.	1r	.	1g	A-
4r	.	.	.	4r	.	4FF/	-men	4r	.	.	4r	.	4a,\	-men
*	*	*	*	*	*	*	*	*	*	*	*	*	*	*Xij
4FF/	in	.	.	4a\	in	4F\	in	4F/	in	.	4c/	in	4cc\	in
4.C/	glo-	.	.	4.g/	glo-	4.C/	glo-	4.G/	glo-	.	4.c/	glo-	4.cc\	glo-
8C/	-ri-	.	.	8g/	-ri-	8C/	-ri-	8G/	-ri-	.	8c/	-ri-	8cc\	-ri-
*custos:C	*	*	*	*	*	*	*	*	*	*	*	*	*	*
!LO:LB:g=original	!	!	!	!	!	!	!	!	!	!	!	!	!	!
=95-	=95-	=95-	=95-	=95-	=95-	=95-	=95-	=95-	=95-	=95-	=95-	=95-	=95-	=95-
*xywh-#527:1124,2092,4093,669	*	*	*	*	*	*	*	*	*	*	*	*	*	*
4C,</	-a	0ryy	0ryy	4g/	-a	4C/	-a	4G,</	-a,	.	4c/	-a	4cc\	-a
*	*	*	*	*	*ij	*	*	*custos:F	*ij	*	*	*ij	*	*ij
!	!	!	!	!	!	!	!	!LO:LB:g=original	!	!	!	!	!	!
*	*	*	*	*	*	*	*	*xywh-#230:4997,1329,4271,950	*	*	*	*	*	*
4FF/	in	.	.	4a\	in	4F\	in	4F/	in	.	4A/	in	4cc\	in
4.BB-/	glo-	.	.	4.b-\	glo-	4.BB-/	glo-	4.F/	glo-	.	4.d\	glo-	4.dd\	glo-
8BB-/	-ri-	.	.	8b-\	-ri-	8BB-/	-ri-	8F/	-ri-	.	8d\	-ri-	8dd\	-ri-
4FF/	-a	.	.	4a,\	-a	4F\	-a	4F,</	-a	.	4A/	-a	4cc\	-a
*	*	*	*	*	*Xij	*	*	*	*Xij	*	*	*Xij	*	*Xij
2C/	DE-	.	.	2g/	DE-	2C/	DE-	2G/	DE-	.	2c/	DE-	2cc\	DE-
4C/	-I	.	.	4cc\	-I	4C/	-I	4E/	-I	.	4c/	-I	4g/	-I
*	*	*	*	*	*	*	*	*	*	*	*	*	*custos:a	*
!	!	!	!	!	!	!	!	!	!	!	!	!	!LO:LB:g=original	!
=96-	=96-	=96-	=96-	=96-	=96-	=96-	=96-	=96-	=96-	=96-	=96-	=96-	=96-	=96-
*	*	*	*	*	*	*	*	*	*	*	*	*	*xywh-#826:5362,2772,4146,822	*
4F\	Pa-	0ryy	0ryy	4cc\	Pa-	4FF/	Pa-	4A/	Pa-	.	4c/	Pa-	4a\	Pa-
4FF/	-tris	.	.	4a\	-tris	4F\	-tris	4F/	-tris	.	4c/	-tris	4cc\	.
2C/	A-	.	.	2g/	A-	2C/	A-	2G/	A-	.	2c/	a-	2cc\	-tris
4FF/	-men	.	.	4a,\	-men	4F,\	-men,	4F,</	-men	.	4A/	-men	4cc\	A-
*	*	*	*	*	*ij	*	*	*	*ij	*	*	*ij	*	*
2C/	DE-	.	.	2g/	DE-	2C/	DE-	2G/	DE-	.	2c/	DE-	2cc\	-men
*	*	*	*	*	*	*	*	*	*	*	*	*	*	*ij
4C/	-I	.	.	4cc\	-I	4C/	-I	4E/	-I	.	4c/	-I	4g/	Pa-
=97-	=97-	=97-	=97-	=97-	=97-	=97-	=97-	=97-	=97-	=97-	=97-	=97-	=97-	=97-
2F\	Pa-	0ryy	0ryy	2cc\	Pa-	2FF/	Pa-	2A/	Pa-	.	2c/	Pa-	2a\	.
2FF/	-tris	.	.	2a\	-tris	2F\	-tris	2F/	-tris	.	2c/	-tris	2cc\	-tris
1C	A-	.	.	1g	A-	1C	A-	1G	A-	.	1c	a-	1cc	A-
=98-	=98-	=98-	=98-	=98-	=98-	=98-	=98-	=98-	=98-	=98-	=98-	=98-	=98-	=98-
0FF;	-men.	0ryy	0ryy	0a;	-men.	0F;	-men.	0F;	-men	.	0A;	-men	0cc;	-men
==	==	==	==	==	==	==	==	==	==	==	==	==	==	==
*-	*-	*-	*-	*-	*-	*-	*-	*-	*-	*-	*-	*-	*-	*-
!!!system-decoration: [(s1,s2,s3,s4,s5,s6,s7,s8)]
!!!RDF**kern: < = below
!!!ENC: Mateusz Solarz
!!!END: 2022-06-20
!!!ENC: Natalia Wrzos
!!!END: 2022-07-27
!!!ENC-iiif: Jolanta Bujas-Poniatowska
!!!END-iiif: 2022-09-16
